src/images/svg/payment-methods/payment-visa-electron.svg

<svg width="128" height="80" viewBox="0 0 128 80" fill="none" xmlns="http://www.w3.org/2000/svg">
<path d="M83.5097 27.1434C81.519 26.3777 79.4037 25.9901 77.2719 26.0002C70.389 26.0002 65.5418 29.6824 65.5015 34.9525C65.5015 38.847 68.9581 41.0218 71.5983 42.3165C74.2386 43.6113 75.2262 44.5015 75.2161 45.685C75.2161 47.5057 73.0495 48.3352 71.0441 48.3352C68.7776 48.4017 66.5291 47.9121 64.4938 46.9089L63.5969 46.4841L62.5892 52.5533C65.0633 53.5166 67.695 54.0072 70.3487 53.9999C77.6548 53.9999 82.4415 50.3583 82.4415 44.7341C82.4415 41.6388 80.6075 39.3022 76.5866 37.3701C74.158 36.1057 72.6665 35.2762 72.6867 34.0017C72.7068 32.7271 73.9463 31.665 76.6672 31.665C78.4563 31.6198 80.2339 31.9649 81.8772 32.6766L82.502 32.9901L83.448 27.12L83.5097 27.1434Z" fill="#1A1F71"/>
<path fill-rule="evenodd" clip-rule="evenodd" d="M95.9855 26.5062C94.396 26.3067 92.881 27.2393 92.3375 28.7518L81.9981 53.6053H89.3143C89.3143 53.6053 90.5034 50.2571 90.7755 49.5592H99.6839C99.767 49.9327 99.917 50.6372 100.069 51.355L100.151 51.746C100.355 52.717 100.54 53.6053 100.54 53.6053H107L101.367 26.5062H95.9855ZM95.8052 35.7015C96.0019 35.1555 96.2734 34.3933 96.4692 33.8095L96.9428 36.1563C96.9428 36.1563 97.2937 37.8482 97.6728 39.6824L97.7766 40.185C98.1062 41.7803 98.435 43.3765 98.5552 43.9755H92.7809C93.3553 42.4177 95.5521 36.399 95.5521 36.399C95.5521 36.399 95.616 36.2248 95.7138 35.9547L95.8052 35.7015Z" fill="#1A1F71"/>
<path d="M58.2559 53.5952L62.6093 26.4758H55.656L51.3026 53.5952H58.2559Z" fill="#1A1F71"/>
<path d="M35.4811 28.772C35.0579 27.0524 33.8284 26.5466 32.3168 26.4859H21.0907L21 27.0423C23.733 27.7447 26.1771 28.7579 28.319 30.0176L34.5036 53.5649H41.8299L52.8343 26.496H45.4577L38.6454 44.987L37.9198 41.2241L37.8859 41.1126L37.9198 41.2038L35.4811 28.772Z" fill="#1A1F71"/>
<path d="M76.5735 57.9609H75.6509V65.4072H76.5735V57.9609Z" fill="#1A1F71"/>
<path d="M73.9118 62.094H71.1741V64.6421H74.2366V65.4082H70.2515V58.3389H74.0795V59.105H71.1741V61.3385H73.9118V62.094Z" fill="#1A1F71"/>
<path fill-rule="evenodd" clip-rule="evenodd" d="M80.6416 64.7999C79.7088 64.7999 78.9219 64.2861 78.9011 63.0376H82.4667C82.488 62.9327 82.4986 62.7964 82.4986 62.608C82.4986 61.6747 82.0684 60.227 80.4009 60.227C78.9219 60.227 78.0205 61.4228 78.0205 62.954C78.0205 64.4853 78.9538 65.5235 80.5159 65.5235C81.3241 65.5235 81.8901 65.3451 82.2154 65.1987L82.0477 64.538C81.7117 64.6844 81.3028 64.7999 80.6416 64.7999ZM80.3275 60.8877C81.3657 60.8877 81.6175 61.8003 81.6068 62.3769H78.9112C78.9847 61.7375 79.3835 60.8877 80.3275 60.8877Z" fill="#1A1F71"/>
<path d="M87.52 65.2296C87.2788 65.3451 86.7438 65.5235 86.0623 65.5235C84.5311 65.5235 83.5349 64.4853 83.5349 62.9327C83.5349 61.3701 84.604 60.227 86.2614 60.227C86.8066 60.227 87.289 60.3628 87.5408 60.4996L87.3315 61.2024C87.1106 61.0869 86.7645 60.9607 86.2614 60.9607C85.097 60.9607 84.4682 61.8312 84.4682 62.8806C84.4682 64.0551 85.2232 64.7786 86.23 64.7786C86.7544 64.7786 87.1005 64.653 87.3624 64.5374L87.52 65.2296Z" fill="#1A1F71"/>
<path d="M90.1087 59.1153V60.3319H91.4296V61.0342H90.1087V63.7718C90.1087 64.4017 90.2871 64.7579 90.8009 64.7579C91.0522 64.7579 91.1996 64.7371 91.3359 64.6945L91.378 65.3978C91.1996 65.4606 90.9164 65.5235 90.5597 65.5235C90.1295 65.5235 89.7834 65.3765 89.5635 65.1359C89.3117 64.8521 89.2068 64.4017 89.2068 63.8038V61.0342H88.4199V60.3319H89.2068V59.3879L90.1087 59.1153Z" fill="#1A1F71"/>
<path d="M92.7191 61.9156C92.7191 61.3177 92.7079 60.8039 92.677 60.3317H93.4847L93.5267 61.3385H93.5576C93.7887 60.657 94.3546 60.2268 94.9733 60.2268C95.0565 60.2268 95.1233 60.235 95.1953 60.2439L95.2257 60.2476V61.1186C95.1309 61.0973 95.0372 61.0973 94.9105 61.0973C94.2609 61.0973 93.7988 61.5797 93.6731 62.2723C93.6524 62.398 93.6417 62.555 93.6417 62.7025V65.4082H92.7191V61.9156Z" fill="#1A1F71"/>
<path fill-rule="evenodd" clip-rule="evenodd" d="M100.898 62.8279C100.898 64.7051 99.5867 65.5235 98.3701 65.5235C97.0066 65.5235 95.9375 64.5161 95.9375 62.912C95.9375 61.2232 97.0593 60.227 98.4542 60.227C99.912 60.227 100.898 61.286 100.898 62.8279ZM96.8809 62.8806C96.8809 63.9922 97.5102 64.8313 98.4122 64.8313C99.2933 64.8313 99.9535 64.0024 99.9535 62.8593C99.9535 61.9994 99.5238 60.9186 98.4329 60.9186C97.3532 60.9186 96.8809 61.926 96.8809 62.8806Z" fill="#1A1F71"/>
<path d="M102.312 61.7049C102.312 61.1703 102.301 60.7508 102.27 60.3312H103.088L103.141 61.1703H103.162C103.413 60.6981 104.001 60.2263 104.84 60.2263C105.542 60.2263 106.633 60.6459 106.633 62.3863V65.4072H105.71V62.4811C105.71 61.6633 105.406 60.9813 104.536 60.9813C103.938 60.9813 103.466 61.4115 103.298 61.9253C103.256 62.0408 103.235 62.1979 103.235 62.3555V65.4072H102.312V61.7049Z" fill="#1A1F71"/>
</svg>

<svg width="128" height="80" fill="none" xmlns="http://www.w3.org/2000/svg"><path d="M83.51 27.143A17.149 17.149 0 0 0 77.272 26c-6.883 0-11.73 3.682-11.77 8.953 0 3.894 3.456 6.069 6.096 7.363 2.64 1.295 3.628 2.185 3.618 3.369 0 1.82-2.166 2.65-4.172 2.65a13.893 13.893 0 0 1-6.55-1.426l-.897-.425-1.008 6.07A21.224 21.224 0 0 0 70.35 54c7.306 0 12.093-3.642 12.093-9.266 0-3.095-1.834-5.432-5.855-7.364-2.429-1.264-3.92-2.094-3.9-3.368.02-1.275 1.26-2.337 3.98-2.337 1.79-.045 3.567.3 5.21 1.012l.625.313.946-5.87.062.023z" fill="#1A1F71"/><path fill-rule="evenodd" clip-rule="evenodd" d="M95.986 26.506a3.425 3.425 0 0 0-3.648 2.246l-10.34 24.853h7.316s1.19-3.348 1.462-4.046h8.908c.083.374.233 1.078.385 1.796l.082.391.389 1.86H107l-5.633-27.1h-5.382zm-.18 9.196c.196-.546.467-1.309.663-1.892l.474 2.346.73 3.526.104.503c.33 1.595.658 3.191.778 3.79h-5.774c.574-1.557 2.771-7.576 2.771-7.576l.162-.444.091-.253z" fill="#1A1F71"/><path d="m58.256 53.595 4.353-27.12h-6.953l-4.353 27.12h6.953zM35.481 28.772c-.423-1.72-1.653-2.225-3.164-2.286H21.09l-.091.556c2.733.703 5.177 1.716 7.319 2.976l6.185 23.547h7.326l11.004-27.069h-7.376l-6.813 18.491-.725-3.763-.034-.111.034.09-2.439-12.431zM76.573 57.96h-.922v7.447h.922v-7.446zM73.912 62.094h-2.738v2.548h3.063v.766H70.25v-7.07h3.828v.767h-2.905v2.234h2.738v.755z" fill="#1A1F71"/><path fill-rule="evenodd" clip-rule="evenodd" d="M80.642 64.8c-.933 0-1.72-.514-1.74-1.762h3.565c.021-.105.032-.242.032-.43 0-.933-.43-2.381-2.098-2.381-1.48 0-2.38 1.196-2.38 2.727s.933 2.57 2.495 2.57c.808 0 1.374-.179 1.7-.325l-.168-.661c-.336.146-.745.262-1.406.262zm-.314-3.912c1.038 0 1.29.912 1.279 1.489H78.91c.074-.64.472-1.49 1.416-1.49z" fill="#1A1F71"/><path d="M87.52 65.23c-.241.115-.776.293-1.458.293-1.53 0-2.527-1.038-2.527-2.59 0-1.563 1.069-2.706 2.726-2.706.546 0 1.028.136 1.28.273l-.21.702c-.22-.115-.567-.241-1.07-.241-1.164 0-1.793.87-1.793 1.92 0 1.174.755 1.898 1.762 1.898.524 0 .87-.126 1.132-.242l.158.693zM90.109 59.115v1.217h1.32v.702h-1.32v2.738c0 .63.178.986.692.986.251 0 .399-.02.535-.063l.042.703a2.522 2.522 0 0 1-.818.126c-.43 0-.777-.148-.996-.388-.252-.284-.357-.734-.357-1.332v-2.77h-.787v-.702h.787v-.944l.902-.273zM92.72 61.916c0-.598-.012-1.112-.043-1.584h.808l.042 1.007h.03c.232-.682.798-1.112 1.416-1.112.084 0 .15.008.222.017l.03.004v.87c-.094-.02-.188-.02-.314-.02-.65 0-1.112.482-1.238 1.174a2.79 2.79 0 0 0-.031.43v2.706h-.923v-3.492z" fill="#1A1F71"/><path fill-rule="evenodd" clip-rule="evenodd" d="M100.898 62.828c0 1.877-1.311 2.695-2.528 2.695-1.363 0-2.433-1.007-2.433-2.611 0-1.689 1.122-2.685 2.517-2.685 1.458 0 2.444 1.059 2.444 2.6zm-4.017.053c0 1.111.63 1.95 1.531 1.95.881 0 1.541-.829 1.541-1.972 0-.86-.43-1.94-1.52-1.94-1.08 0-1.552 1.007-1.552 1.962z" fill="#1A1F71"/><path d="M102.312 61.705c0-.535-.011-.954-.042-1.374h.818l.053.84h.021c.251-.473.839-.945 1.678-.945.702 0 1.793.42 1.793 2.16v3.021h-.923v-2.926c0-.818-.304-1.5-1.174-1.5-.598 0-1.07.43-1.238.944a1.326 1.326 0 0 0-.063.43v3.052h-.923v-3.702z" fill="#1A1F71"/></svg>
